X:20
T:Coach Road to Sligo, The
T:Blackthorn Stick, The
T:Humours of Bantry, The
R:jig
Z:id:hn-jig-20
M:6/8
K:G
~g3 ege|dBG AGE|DGG FGA|BGB A2e|gfg age|dBG AGE|DGG FGA|BGG G2d:|
|:edd gdd|edd gdd|ede ~g3|edB A2e|gfg age|dBG AGE|DGG FGA|BGG G2d:|
<end>
<start>
